source/img/second-blue.svg

<svg width="48" height="48" viewBox="0 0 48 48" fill="none" xmlns="http://www.w3.org/2000/svg">
<circle cx="24" cy="24" r="24" fill="#0061D9"/>
<path d="M18.7041 21.0645H20.9814C20.9814 19.4102 22.3242 18.1963 24.0967 18.1963C25.7402 18.1963 26.8145 19.3135 26.8145 20.7422C26.8145 21.9561 26.3418 22.751 24.3008 24.835L18.833 30.3457V32H29.4355V29.9697H22.0557V29.916L25.5791 26.3818C28.3506 23.6104 29.1885 22.375 29.1885 20.5918C29.1885 18.1533 27.1367 16.209 24.0967 16.209C20.9814 16.209 18.7041 18.25 18.7041 21.0645Z" fill="white"/>
</svg>

<svg width="48" height="48" fill="none" xmlns="http://www.w3.org/2000/svg"><circle cx="24" cy="24" r="24" fill="#0061D9"/><path d="M18.704 21.064h2.277c0-1.654 1.343-2.868 3.116-2.868 1.643 0 2.717 1.117 2.717 2.546 0 1.214-.472 2.009-2.513 4.093l-5.468 5.51V32h10.603v-2.03h-7.38v-.054l3.523-3.534c2.772-2.772 3.61-4.007 3.61-5.79 0-2.439-2.052-4.383-5.092-4.383-3.116 0-5.393 2.041-5.393 4.855z" fill="#fff"/></svg>
